;FLAVOR:Marlin
;TIME:5083
;Filament used: 2.71315m
;Layer height: 0.2
;MINX:109.7
;MINY:32.2
;MINZ:0.2
;MAXX:190.3
;MAXY:137.8
;MAXZ:3
;Generated with Cura_SteamEngine 5.0.0
M140 S50
M105
M190 S50
M104 S200
M105
M109 S200
M82 ;absolute extrusion mode
M201 X500.00 Y500.00 Z100.00 E5000.00 ;Setup machine max acceleration
M203 X500.00 Y500.00 Z10.00 E50.00 ;Setup machine max feedrate
M204 P500.00 R1000.00 T500.00 ;Setup Print/Retract/Travel acceleration
M205 X8.00 Y8.00 Z0.40 E5.00 ;Setup Jerk
M220 S100 ;Reset Feedrate
M221 S100 ;Reset Flowrate

G28 ;Home
G29 ;Auto bed Level

G92 E0 ;Reset Extruder
G1 Z2.0 F3000 ;Move Z Axis up
G1 X10.1 Y20 Z0.28 F5000.0 ;Move to start position
G1 X10.1 Y200.0 Z0.28 F1500.0 E15 ;Draw the first line
G1 X10.4 Y200.0 Z0.28 F5000.0 ;Move to side a little
G1 X10.4 Y20 Z0.28 F1500.0 E30 ;Draw the second line
G92 E0 ;Reset Extruder
G1 Z2.0 F3000 ;Move Z Axis up

G92 E0
G92 E0
G1 F2700 E-5
;LAYER_COUNT:15
;LAYER:0
M107
G0 F6000 X110.331 Y44.926 Z0.2
G0 X109.7 Y48
;TYPE:SKIRT
G1 F2700 E0
G1 F1200 X109.74 Y47.211 E0.02628
G1 X109.859 Y46.431 E0.05252
G1 X110.057 Y45.666 E0.0788
G1 X110.331 Y44.926 E0.10505
G1 X110.679 Y44.217 E0.13132
G1 X111.097 Y43.546 E0.15761
G1 X111.58 Y42.922 E0.18385
G1 X112.123 Y42.349 E0.21011
G1 X112.722 Y41.834 E0.23638
G1 X113.37 Y41.383 E0.26264
G1 X114.061 Y40.999 E0.28894
G1 X114.786 Y40.687 E0.31519
G1 X115.539 Y40.45 E0.34144
G1 X116.313 Y40.291 E0.36773
G1 X117.098 Y40.21 E0.39397
G1 X117.5 Y40.2 E0.40735
G1 X130.2 Y40.2 E0.82975
G1 X130.2 Y40 E0.8364
G1 X130.24 Y39.211 E0.86268
G1 X130.359 Y38.431 E0.88892
G1 X130.557 Y37.666 E0.91521
G1 X130.831 Y36.926 E0.94145
G1 X131.179 Y36.217 E0.96772
G1 X131.597 Y35.546 E0.99401
G1 X132.08 Y34.922 E1.02026
G1 X132.623 Y34.349 E1.04651
G1 X133.222 Y33.834 E1.07279
G1 X133.87 Y33.383 E1.09905
G1 X134.561 Y32.999 E1.12534
G1 X135.286 Y32.687 E1.15159
G1 X136.039 Y32.45 E1.17785
G1 X136.813 Y32.291 E1.20413
G1 X137.598 Y32.21 E1.23038
G1 X138 Y32.2 E1.24375
G1 X162 Y32.2 E2.042
G1 X162.789 Y32.24 E2.06827
G1 X163.569 Y32.359 E2.09451
G1 X164.334 Y32.557 E2.1208
G1 X165.074 Y32.831 E2.14704
G1 X165.783 Y33.179 E2.17331
G1 X166.454 Y33.597 E2.1996
G1 X167.078 Y34.08 E2.22585
G1 X167.651 Y34.623 E2.25211
G1 X168.166 Y35.222 E2.27838
G1 X168.617 Y35.87 E2.30464
G1 X169.001 Y36.561 E2.33093
G1 X169.313 Y37.286 E2.35718
G1 X169.55 Y38.039 E2.38344
G1 X169.709 Y38.813 E2.40972
G1 X169.79 Y39.598 E2.43597
G1 X169.8 Y40.2 E2.45599
G1 X182.5 Y40.2 E2.8784
G1 X183.289 Y40.24 E2.90467
G1 X184.069 Y40.359 E2.93092
G1 X184.834 Y40.557 E2.9572
G1 X185.574 Y40.831 E2.98344
G1 X186.283 Y41.179 E3.00971
G1 X186.954 Y41.597 E3.03601
G1 X187.578 Y42.08 E3.06225
G1 X188.151 Y42.623 E3.08851
G1 X188.666 Y43.222 E3.11478
G1 X189.117 Y43.87 E3.14104
G1 X189.501 Y44.561 E3.16733
G1 X189.813 Y45.286 E3.19359
G1 X190.05 Y46.039 E3.21984
G1 X190.209 Y46.813 E3.24612
G1 X190.29 Y47.598 E3.27237
G1 X190.3 Y48 E3.28575
G1 X190.3 Y72 E4.08399
G1 X190.26 Y72.789 E4.11026
G1 X190.141 Y73.569 E4.13651
G1 X189.943 Y74.334 E4.16279
G1 X189.669 Y75.074 E4.18904
G1 X189.321 Y75.783 E4.2153
G1 X188.903 Y76.454 E4.2416
G1 X188.42 Y77.078 E4.26784
G1 X187.877 Y77.651 E4.2941
G1 X187.278 Y78.166 E4.32037
G1 X186.63 Y78.617 E4.34663
G1 X185.939 Y79.001 E4.37293
G1 X185.214 Y79.313 E4.39918
G1 X184.461 Y79.55 E4.42543
G1 X183.687 Y79.709 E4.45171
G1 X182.902 Y79.79 E4.47796
G1 X182.5 Y79.8 E4.49134
G1 X169.8 Y79.8 E4.91374
G1 X169.8 Y80 E4.92039
G1 X169.76 Y80.789 E4.94667
G1 X169.641 Y81.569 E4.97291
G1 X169.443 Y82.334 E4.99919
G1 X169.169 Y83.074 E5.02544
G1 X168.821 Y83.783 E5.05171
G1 X168.403 Y84.454 E5.078
G1 X167.978 Y85.003 E5.10109
G1 X168.166 Y85.222 E5.11069
G1 X168.617 Y85.87 E5.13695
G1 X169.001 Y86.561 E5.16325
G1 X169.313 Y87.286 E5.1895
G1 X169.55 Y88.039 E5.21575
G1 X169.709 Y88.813 E5.24203
G1 X169.79 Y89.598 E5.26828
G1 X169.8 Y90.2 E5.28831
G1 X182.5 Y90.2 E5.71071
G1 X183.289 Y90.24 E5.73699
G1 X184.069 Y90.359 E5.76323
G1 X184.834 Y90.557 E5.78951
G1 X185.574 Y90.831 E5.81576
G1 X186.283 Y91.179 E5.84203
G1 X186.954 Y91.597 E5.86832
G1 X187.578 Y92.08 E5.89457
G1 X188.151 Y92.623 E5.92082
G1 X188.666 Y93.222 E5.9471
G1 X189.117 Y93.87 E5.97335
G1 X189.501 Y94.561 E5.99965
G1 X189.813 Y95.286 E6.0259
G1 X190.05 Y96.039 E6.05216
G1 X190.209 Y96.813 E6.07844
G1 X190.29 Y97.598 E6.10468
G1 X190.3 Y98 E6.11806
G1 X190.3 Y122 E6.9163
G1 X190.26 Y122.789 E6.94258
G1 X190.141 Y123.569 E6.96882
G1 X189.943 Y124.334 E6.9951
G1 X189.669 Y125.074 E7.02135
G1 X189.321 Y125.783 E7.04762
G1 X188.903 Y126.454 E7.07391
G1 X188.42 Y127.078 E7.10016
G1 X187.877 Y127.651 E7.12641
G1 X187.278 Y128.166 E7.15269
G1 X186.63 Y128.617 E7.17895
G1 X185.939 Y129.001 E7.20524
G1 X185.214 Y129.313 E7.23149
G1 X184.461 Y129.55 E7.25775
G1 X183.687 Y129.709 E7.28403
G1 X182.902 Y129.79 E7.31028
G1 X182.5 Y129.8 E7.32365
G1 X169.8 Y129.8 E7.74605
G1 X169.8 Y130 E7.75271
G1 X169.76 Y130.789 E7.77898
G1 X169.641 Y131.569 E7.80523
G1 X169.443 Y132.334 E7.83151
G1 X169.169 Y133.074 E7.85775
G1 X168.821 Y133.783 E7.88402
G1 X168.403 Y134.454 E7.91032
G1 X167.92 Y135.078 E7.93656
G1 X167.377 Y135.651 E7.96282
G1 X166.778 Y136.166 E7.98909
G1 X166.13 Y136.617 E8.01535
G1 X165.439 Y137.001 E8.04164
G1 X164.714 Y137.313 E8.06789
G1 X163.961 Y137.55 E8.09415
G1 X163.187 Y137.709 E8.12043
G1 X162.402 Y137.79 E8.14668
G1 X162 Y137.8 E8.16005
G1 X138 Y137.8 E8.9583
G1 X137.211 Y137.76 E8.98457
G1 X136.431 Y137.641 E9.01082
G1 X135.666 Y137.443 E9.0371
G1 X134.926 Y137.169 E9.06334
G1 X134.217 Y136.821 E9.08961
G1 X133.546 Y136.403 E9.11591
G1 X132.922 Y135.92 E9.14215
G1 X132.349 Y135.377 E9.16841
G1 X131.834 Y134.778 E9.19468
G1 X131.383 Y134.13 E9.22094
G1 X130.999 Y133.439 E9.24723
G1 X130.687 Y132.714 E9.27349
G1 X130.45 Y131.961 E9.29974
G1 X130.291 Y131.187 E9.32602
G1 X130.21 Y130.402 E9.35227
G1 X130.2 Y129.8 E9.3723
G1 X117.5 Y129.8 E9.7947
G1 X116.711 Y129.76 E9.82098
G1 X115.931 Y129.641 E9.84722
G1 X115.166 Y129.443 E9.8735
G1 X114.426 Y129.169 E9.89975
G1 X113.717 Y128.821 E9.92602
G1 X113.046 Y128.403 E9.95231
G1 X112.422 Y127.92 E9.97855
G1 X111.849 Y127.377 E10.00481
G1 X111.334 Y126.778 E10.03108
G1 X110.883 Y126.13 E10.05734
G1 X110.499 Y125.439 E10.08364
G1 X110.187 Y124.714 E10.10989
G1 X109.95 Y123.961 E10.13614
G1 X109.791 Y123.187 E10.16243
G1 X109.71 Y122.402 E10.18867
G1 X109.7 Y122 E10.20205
G1 X109.7 Y98 E11.00029
G1 X109.74 Y97.211 E11.02657
G1 X109.859 Y96.431 E11.05281
G1 X110.057 Y95.666 E11.07909
G1 X110.331 Y94.926 E11.10534
G1 X110.679 Y94.217 E11.13161
G1 X111.097 Y93.546 E11.1579
G1 X111.58 Y92.922 E11.18415
G1 X112.123 Y92.349 E11.2104
G1 X112.722 Y91.834 E11.23668
G1 X113.37 Y91.383 E11.26293
G1 X114.061 Y90.999 E11.28923
G1 X114.786 Y90.687 E11.31548
G1 X115.539 Y90.45 E11.34174
G1 X116.313 Y90.291 E11.36802
G1 X117.098 Y90.21 E11.39426
G1 X117.5 Y90.2 E11.40764
G1 X130.2 Y90.2 E11.83004
G1 X130.2 Y90 E11.83669
G1 X130.24 Y89.211 E11.86297
G1 X130.359 Y88.431 E11.88921
G1 X130.557 Y87.666 E11.9155
G1 X130.831 Y86.926 E11.94174
G1 X131.179 Y86.217 E11.96801
G1 X131.597 Y85.546 E11.9943
G1 X132.022 Y84.997 E12.0174
G1 X131.834 Y84.778 E12.027
G1 X131.383 Y84.13 E12.05325
G1 X130.999 Y83.439 E12.07955
G1 X130.687 Y82.714 E12.1058
G1 X130.45 Y81.961 E12.13206
G1 X130.291 Y81.187 E12.15834
G1 X130.21 Y80.402 E12.18458
G1 X130.2 Y79.8 E12.20461
G1 X117.5 Y79.8 E12.62701
G1 X116.711 Y79.76 E12.65329
G1 X115.931 Y79.641 E12.67953
G1 X115.166 Y79.443 E12.70581
G1 X114.426 Y79.169 E12.73206
G1 X113.717 Y78.821 E12.75833
G1 X113.046 Y78.403 E12.78462
G1 X112.422 Y77.92 E12.81087
G1 X111.849 Y77.377 E12.83712
G1 X111.334 Y76.778 E12.8634
G1 X110.883 Y76.13 E12.88966
G1 X110.499 Y75.439 E12.91595
G1 X110.187 Y74.714 E12.9422
G1 X109.95 Y73.961 E12.96846
G1 X109.791 Y73.187 E12.99474
G1 X109.71 Y72.402 E13.02099
G1 X109.7 Y72 E13.03436
G1 X109.7 Y48 E13.8326
G0 F6000 X110.1 Y48
G1 F1200 X110.14 Y47.232 E13.85818
G1 X110.259 Y46.472 E13.88377
G1 X110.457 Y45.729 E13.90934
G1 X110.731 Y45.01 E13.93494
G1 X111.078 Y44.324 E13.9605
G1 X111.494 Y43.677 E13.98609
G1 X111.975 Y43.077 E14.01167
G1 X112.516 Y42.53 E14.03725
G1 X113.111 Y42.042 E14.06285
G1 X113.753 Y41.619 E14.08842
G1 X114.436 Y41.264 E14.11402
G1 X115.151 Y40.983 E14.13957
G1 X115.893 Y40.777 E14.16519
G1 X116.651 Y40.649 E14.19075
G1 X117.5 Y40.6 E14.21904
G1 X130.6 Y40.6 E14.65475
G1 X130.6 Y40 E14.6747
G1 X130.64 Y39.232 E14.70028
G1 X130.759 Y38.472 E14.72587
G1 X130.957 Y37.729 E14.75144
G1 X131.231 Y37.01 E14.77703
G1 X131.578 Y36.324 E14.8026
G1 X131.994 Y35.677 E14.82819
G1 X132.475 Y35.077 E14.85376
G1 X133.016 Y34.53 E14.87935
G1 X133.611 Y34.042 E14.90495
G1 X134.253 Y33.619 E14.93052
G1 X134.936 Y33.264 E14.95612
G1 X135.651 Y32.983 E14.98167
G1 X136.393 Y32.777 E15.00728
G1 X137.151 Y32.649 E15.03285
G1 X138 Y32.6 E15.06114
G1 X162 Y32.6 E15.85938
G1 X162.768 Y32.64 E15.88496
G1 X163.528 Y32.759 E15.91054
G1 X164.271 Y32.957 E15.93612
G1 X164.99 Y33.231 E15.96171
G1 X165.676 Y33.578 E15.98728
G1 X166.323 Y33.994 E16.01286
G1 X166.923 Y34.475 E16.03844
G1 X167.47 Y35.016 E16.06403
G1 X167.958 Y35.611 E16.08962
G1 X168.381 Y36.253 E16.11519
G1 X168.736 Y36.936 E16.1408
G1 X169.017 Y37.651 E16.16635
G1 X169.223 Y38.393 E16.19196
G1 X169.351 Y39.151 E16.21753
G1 X169.4 Y40 E16.24581
G1 X169.4 Y40.6 E16.26577
G1 X182.5 Y40.6 E16.70148
G1 X183.268 Y40.64 E16.72706
G1 X184.028 Y40.759 E16.75264
G1 X184.771 Y40.957 E16.77822
G1 X185.49 Y41.231 E16.80381
G1 X186.176 Y41.578 E16.82938
G1 X186.823 Y41.994 E16.85496
G1 X187.423 Y42.475 E16.88054
G1 X187.97 Y43.016 E16.90613
G1 X188.458 Y43.611 E16.93172
G1 X188.881 Y44.253 E16.95729
G1 X189.236 Y44.936 E16.98289
G1 X189.517 Y45.651 E17.00845
G1 X189.723 Y46.393 E17.03406
G1 X189.851 Y47.151 E17.05963
G1 X189.9 Y48 E17.08791
G1 X189.9 Y72 E17.88615
G1 X189.86 Y72.768 E17.91173
G1 X189.741 Y73.528 E17.93732
G1 X189.543 Y74.271 E17.96289
G1 X189.269 Y74.99 E17.98848
G1 X188.922 Y75.676 E18.01405
G1 X188.506 Y76.323 E18.03964
G1 X188.025 Y76.923 E18.06521
G1 X187.484 Y77.47 E18.0908
G1 X186.889 Y77.958 E18.1164
G1 X186.247 Y78.381 E18.14197
G1 X185.564 Y78.736 E18.16757
G1 X184.849 Y79.017 E18.19312
G1 X184.107 Y79.223 E18.21873
G1 X183.349 Y79.351 E18.2443
G1 X182.5 Y79.4 E18.27259
G1 X169.4 Y79.4 E18.7083
G1 X169.4 Y80 E18.72825
G1 X169.36 Y80.768 E18.75383
G1 X169.241 Y81.528 E18.77942
G1 X169.043 Y82.271 E18.80499
G1 X168.769 Y82.99 E18.83058
G1 X168.422 Y83.676 E18.85615
G1 X168.006 Y84.323 E18.88173
G1 X167.525 Y84.923 E18.90731
G1 X167.451 Y84.998 E18.91082
G1 X167.958 Y85.611 E18.93727
G1 X168.381 Y86.253 E18.96285
G1 X168.736 Y86.936 E18.98845
G1 X169.017 Y87.651 E19.014
G1 X169.223 Y88.393 E19.03961
G1 X169.351 Y89.151 E19.06518
G1 X169.4 Y90 E19.09346
G1 X169.4 Y90.6 E19.11342
G1 X182.5 Y90.6 E19.54913
G1 X183.268 Y90.64 E19.57471
G1 X184.028 Y90.759 E19.60029
G1 X184.771 Y90.957 E19.62587
G1 X185.49 Y91.231 E19.65146
G1 X186.176 Y91.578 E19.67703
G1 X186.823 Y91.994 E19.70261
G1 X187.423 Y92.475 E19.72819
G1 X187.97 Y93.016 E19.75378
G1 X188.458 Y93.611 E19.77937
G1 X188.881 Y94.253 E19.80494
G1 X189.236 Y94.936 E19.83055
G1 X189.517 Y95.651 E19.8561
G1 X189.723 Y96.393 E19.88171
G1 X189.851 Y97.151 E19.90728
G1 X189.9 Y98 E19.93556
G1 X189.9 Y122 E20.73381
G1 X189.86 Y122.768 E20.75938
G1 X189.741 Y123.528 E20.78497
G1 X189.543 Y124.271 E20.81054
G1 X189.269 Y124.99 E20.83614
G1 X188.922 Y125.676 E20.86171
G1 X188.506 Y126.323 E20.88729
G1 X188.025 Y126.923 E20.91287
G1 X187.484 Y127.47 E20.93845
G1 X186.889 Y127.958 E20.96405
G1 X186.247 Y128.381 E20.98962
G1 X185.564 Y128.736 E21.01522
G1 X184.849 Y129.017 E21.04077
G1 X184.107 Y129.223 E21.06639
G1 X183.349 Y129.351 E21.09195
G1 X182.5 Y129.4 E21.12024
G1 X169.4 Y129.4 E21.55595
G1 X169.4 Y130 E21.5759
G1 X169.36 Y130.768 E21.60148
G1 X169.241 Y131.528 E21.62707
G1 X169.043 Y132.271 E21.65264
G1 X168.769 Y132.99 E21.67823
G1 X168.422 Y133.676 E21.7038
G1 X168.006 Y134.323 E21.72939
G1 X167.525 Y134.923 E21.75496
G1 X166.984 Y135.47 E21.78055
G1 X166.389 Y135.958 E21.80615
G1 X165.747 Y136.381 E21.83172
G1 X165.064 Y136.736 E21.85732
G1 X164.349 Y137.017 E21.88287
G1 X163.607 Y137.223 E21.90848
G1 X162.849 Y137.351 E21.93405
G1 X162 Y137.4 E21.96234
G1 X138 Y137.4 E22.76058
G1 X137.232 Y137.36 E22.78616
G1 X136.472 Y137.241 E22.81174
G1 X135.729 Y137.043 E22.83732
G1 X135.01 Y136.769 E22.86291
G1 X134.324 Y136.422 E22.88848
G1 X133.677 Y136.006 E22.91406
G1 X133.077 Y135.525 E22.93964
G1 X132.53 Y134.984 E22.96523
G1 X132.042 Y134.389 E22.99082
G1 X131.619 Y133.747 E23.01639
G1 X131.264 Y133.064 E23.042
G1 X130.983 Y132.349 E23.06755
G1 X130.777 Y131.607 E23.09316
G1 X130.649 Y130.849 E23.11873
G1 X130.6 Y130 E23.14701
G1 X130.6 Y129.4 E23.16697
G1 X117.5 Y129.4 E23.60268
G1 X116.732 Y129.36 E23.62826
G1 X115.972 Y129.241 E23.65384
G1 X115.229 Y129.043 E23.67942
G1 X114.51 Y128.769 E23.70501
G1 X113.824 Y128.422 E23.73058
G1 X113.177 Y128.006 E23.75616
G1 X112.577 Y127.525 E23.78174
G1 X112.03 Y126.984 E23.80733
G1 X111.542 Y126.389 E23.83292
G1 X111.119 Y125.747 E23.85849
G1 X110.764 Y125.064 E23.88409
G1 X110.483 Y124.349 E23.90965
G1 X110.277 Y123.607 E23.93526
G1 X110.149 Y122.849 E23.96083
G1 X110.1 Y122 E23.98911
G1 X110.1 Y98 E24.78735
G1 X110.14 Y97.232 E24.81293
G1 X110.259 Y96.472 E24.83852
G1 X110.457 Y95.729 E24.86409
G1 X110.731 Y95.01 E24.88969
G1 X111.078 Y94.324 E24.91525
G1 X111.494 Y93.677 E24.94084
G1 X111.975 Y93.077 E24.96642
G1 X112.516 Y92.53 E24.992
G1 X113.111 Y92.042 E25.0176
G1 X113.753 Y91.619 E25.04317
G1 X114.436 Y91.264 E25.06877
G1 X115.151 Y90.983 E25.09432
G1 X115.893 Y90.777 E25.11994
G1 X116.651 Y90.649 E25.1455
G1 X117.5 Y90.6 E25.17379
G1 X130.6 Y90.6 E25.6095
G1 X130.6 Y90 E25.62945
G1 X130.64 Y89.232 E25.65503
G1 X130.759 Y88.472 E25.68062
G1 X130.957 Y87.729 E25.70619
G1 X131.231 Y87.01 E25.73178
G1 X131.578 Y86.324 E25.75735
G1 X131.994 Y85.677 E25.78294
G1 X132.475 Y85.077 E25.80851
G1 X132.549 Y85.002 E25.81202
G1 X132.042 Y84.389 E25.83848
G1 X131.619 Y83.747 E25.86405
G1 X131.264 Y83.064 E25.88965
G1 X130.983 Y82.349 E25.9152
G1 X130.777 Y81.607 E25.94081
G1 X130.649 Y80.849 E25.96638
G1 X130.6 Y80 E25.99467
G1 X130.6 Y79.4 E26.01462
G1 X117.5 Y79.4 E26.45033
G1 X116.732 Y79.36 E26.47591
G1 X115.972 Y79.241 E26.50149
G1 X115.229 Y79.043 E26.52707
G1 X114.51 Y78.769 E26.55266
G1 X113.824 Y78.422 E26.57823
G1 X113.177 Y78.006 E26.60381
G1 X112.577 Y77.525 E26.62939
G1 X112.03 Y76.984 E26.65498
G1 X111.542 Y76.389 E26.68057
G1 X111.119 Y75.747 E26.70614
G1 X110.764 Y75.064 E26.73175
G1 X110.483 Y74.349 E26.7573
G1 X110.277 Y73.607 E26.78291
G1 X110.149 Y72.849 E26.80848
G1 X110.1 Y72 E26.83676
G1 X110.1 Y48 E27.63501
G0 F6000 X110.5 Y48
G1 F1200 X110.54 Y47.253 E27.65989
G1 X110.659 Y46.515 E27.68475
G1 X110.857 Y45.793 E27.70965
G1 X111.13 Y45.097 E27.73452
G1 X111.477 Y44.434 E27.75941
G1 X111.892 Y43.811 E27.7843
G1 X112.371 Y43.237 E27.80917
G1 X112.908 Y42.716 E27.83405
G1 X113.498 Y42.257 E27.85892
G1 X114.134 Y41.862 E27.88382
G1 X114.808 Y41.538 E27.90869
G1 X115.513 Y41.288 E27.93357
G1 X116.241 Y41.114 E27.95847
G1 X116.983 Y41.019 E27.98335
G1 X117.5 Y41 E28.00055
G1 X131 Y41 E28.44956
G1 X131 Y40 E28.48283
G1 X131.04 Y39.253 E28.50771
G1 X131.159 Y38.515 E28.53257
G1 X131.357 Y37.793 E28.55747
G1 X131.63 Y37.097 E28.58234
G1 X131.977 Y36.434 E28.60722
G1 X132.392 Y35.811 E28.63212
G1 X132.871 Y35.237 E28.65699
G1 X133.408 Y34.716 E28.68187
G1 X133.998 Y34.257 E28.70674
